icons/folder-chevron-down-outline.svg

<svg xmlns="http://www.w3.org/2000/svg" width="24" height="24" viewBox="0 0 24 24">
  <path d="M11,4 C11.2652165,4 11.5195704,4.10535684 11.7071068,4.29289322 L11.7071068,4.29289322 L13.415,6 L19,6 C20.5976809,6 21.9036609,7.24891996 21.9949073,8.82372721 L21.9949073,8.82372721 L22,9 L22,17 C22,18.6568542 20.6568542,20 19,20 L19,20 L5,20 C3.34314575,20 2,18.6568542 2,17 L2,17 L2,7 C2,5.34314575 3.34314575,4 5,4 L5,4 Z M10.585,6 L5,6 C4.44771525,6 4,6.44771525 4,7 L4,7 L4,17 C4,17.5522847 4.44771525,18 5,18 L5,18 L19,18 C19.5522847,18 20,17.5522847 20,17 L20,17 L20,9 C20,8.44771525 19.5522847,8 19,8 L19,8 L13,8 C12.7347835,8 12.4804296,7.89464316 12.2928932,7.70710678 L12.2928932,7.70710678 L10.585,6 Z M8.38710056,10.7097046 C8.77939176,10.4046797 9.34662282,10.4324093 9.70710678,10.7928932 L9.70710678,10.7928932 L12,13.085 L14.2928932,10.7928932 L14.3871006,10.7097046 C14.7793918,10.4046797 15.3466228,10.4324093 15.7071068,10.7928932 C16.0976311,11.1834175 16.0976311,11.8165825 15.7071068,12.2071068 L15.7071068,12.2071068 L12.7071068,15.2071068 L12.6128994,15.2902954 C12.2206082,15.5953203 11.6533772,15.5675907 11.2928932,15.2071068 L11.2928932,15.2071068 L8.29289322,12.2071068 L8.20970461,12.1128994 C7.90467972,11.7206082 7.93240926,11.1533772 8.29289322,10.7928932 L8.29289322,10.7928932 Z"/>
</svg>

<svg xmlns="http://www.w3.org/2000/svg" viewBox="0 0 24 24">
  <path d="M11 4a1 1 0 0 1 .7.3L13.42 6H19a3 3 0 0 1 3 2.82V17a3 3 0 0 1-3 3H5a3 3 0 0 1-3-3V7a3 3 0 0 1 3-3zm-.41 2H5a1 1 0 0 0-1 1v10a1 1 0 0 0 1 1h14a1 1 0 0 0 1-1V9a1 1 0 0 0-1-1h-6a1 1 0 0 1-.7-.3L10.58 6zm-2.2 4.71a1 1 0 0 1 1.32.08L12 13.1l2.3-2.3.09-.08a1 1 0 0 1 1.32 1.5l-3 3-.1.08a1 1 0 0 1-1.32-.08l-3-3-.08-.1a1 1 0 0 1 .08-1.32z"/>
</svg>
